packages/ui-solid/icons/copy_20.svg

<svg width="20" height="20" viewBox="0 0 20 20" fill="none" xmlns="http://www.w3.org/2000/svg">
<path fill-rule="evenodd" clip-rule="evenodd" d="M6.16145 2.5L9.5 2.5C10.8807 2.5 12 3.61929 12 5C12 5.55229 11.5523 6 11 6C10.4477 6 10 5.55229 10 5C10 4.72386 9.77614 4.5 9.5 4.5H6.2C5.62344 4.5 5.25117 4.50078 4.96783 4.52393C4.69617 4.54612 4.59545 4.5838 4.54601 4.609C4.35784 4.70487 4.20486 4.85785 4.10899 5.04601C4.0838 5.09546 4.04612 5.19617 4.02392 5.46784C4.00077 5.75117 4 6.12345 4 6.7V9C4 9.51259 4.00484 9.62284 4.01921 9.69509C4.09812 10.0918 4.40821 10.4019 4.80491 10.4808C4.87715 10.4952 4.98741 10.5 5.5 10.5C6.05228 10.5 6.5 10.9477 6.5 11.5C6.5 12.0523 6.05228 12.5 5.5 12.5C5.47175 12.5 5.44379 12.5 5.41611 12.5C5.03541 12.5003 4.70758 12.5006 4.41472 12.4424C3.22465 12.2056 2.29436 11.2753 2.05764 10.0853C1.99939 9.79242 1.99965 9.46458 1.99995 9.08389C1.99997 9.05621 2 9.02825 2 9L1.99999 6.66146C1.99998 6.13431 1.99996 5.67955 2.03057 5.30497C2.06287 4.90963 2.13418 4.51641 2.32698 4.13803C2.6146 3.57354 3.07354 3.1146 3.63802 2.82698C4.0164 2.63419 4.40962 2.56287 4.80497 2.53057C5.17954 2.49997 5.6343 2.49998 6.16145 2.5ZM12.1615 7.5H13.8385C14.3657 7.49998 14.8205 7.49997 15.195 7.53057C15.5904 7.56287 15.9836 7.63419 16.362 7.82698C16.9265 8.1146 17.3854 8.57354 17.673 9.13803C17.8658 9.51641 17.9371 9.90963 17.9694 10.305C18 10.6796 18 11.1343 18 11.6615V13.3385C18 13.8657 18 14.3205 17.9694 14.695C17.9371 15.0904 17.8658 15.4836 17.673 15.862C17.3854 16.4265 16.9265 16.8854 16.362 17.173C15.9836 17.3658 15.5904 17.4371 15.195 17.4694C14.8204 17.5 14.3657 17.5 13.8385 17.5H12.1615C11.6343 17.5 11.1795 17.5 10.805 17.4694C10.4096 17.4371 10.0164 17.3658 9.63802 17.173C9.07354 16.8854 8.6146 16.4265 8.32698 15.862C8.13418 15.4836 8.06287 15.0904 8.03057 14.695C7.99996 14.3205 7.99998 13.8657 7.99999 13.3385V11.6615C7.99998 11.1343 7.99996 10.6795 8.03057 10.305C8.06287 9.90963 8.13418 9.51641 8.32698 9.13803C8.6146 8.57354 9.07354 8.1146 9.63802 7.82698C10.0164 7.63419 10.4096 7.56287 10.805 7.53057C11.1795 7.49997 11.6343 7.49998 12.1615 7.5ZM10.9678 9.52393C10.6962 9.54612 10.5954 9.5838 10.546 9.609C10.3578 9.70487 10.2049 9.85785 10.109 10.046C10.0838 10.0955 10.0461 10.1962 10.0239 10.4678C10.0008 10.7512 10 11.1234 10 11.7V13.3C10 13.8766 10.0008 14.2488 10.0239 14.5322C10.0461 14.8038 10.0838 14.9045 10.109 14.954C10.2049 15.1422 10.3578 15.2951 10.546 15.391C10.5954 15.4162 10.6962 15.4539 10.9678 15.4761C11.2512 15.4992 11.6234 15.5 12.2 15.5H13.8C14.3765 15.5 14.7488 15.4992 15.0322 15.4761C15.3038 15.4539 15.4045 15.4162 15.454 15.391C15.6421 15.2951 15.7951 15.1422 15.891 14.954C15.9162 14.9045 15.9539 14.8038 15.9761 14.5322C15.9992 14.2488 16 13.8766 16 13.3V11.7C16 11.1234 15.9992 10.7512 15.9761 10.4678C15.9539 10.1962 15.9162 10.0955 15.891 10.046C15.7951 9.85785 15.6421 9.70487 15.454 9.609C15.4045 9.5838 15.3038 9.54612 15.0322 9.52393C14.7488 9.50078 14.3765 9.5 13.8 9.5H12.2C11.6234 9.5 11.2512 9.50078 10.9678 9.52393Z" fill="#007AFF"/>
</svg>

<svg xmlns="http://www.w3.org/2000/svg" width="20" height="20" fill="none"><path fill="currentColor" fill-rule="evenodd" d="M6.161 2.5H9.5A2.5 2.5 0 0 1 12 5a1 1 0 1 1-2 0 .5.5 0 0 0-.5-.5H6.2c-.577 0-.949 0-1.232.024-.272.022-.373.06-.422.085a1 1 0 0 0-.437.437c-.025.05-.063.15-.085.422C4 5.75 4 6.123 4 6.7V9c0 .513.005.623.02.695a1 1 0 0 0 .785.786c.072.014.182.019.695.019a1 1 0 1 1 0 2h-.084c-.38 0-.708 0-1.001-.058a3 3 0 0 1-2.357-2.357C1.999 9.792 2 9.465 2 9.084V6.66c0-.527 0-.981.03-1.356.033-.395.104-.789.297-1.167a3 3 0 0 1 1.311-1.311c.378-.193.772-.264 1.167-.296.375-.031.83-.031 1.356-.031m6 5h1.678c.527 0 .981 0 1.356.03.395.033.789.104 1.167.297a3 3 0 0 1 1.311 1.311c.193.378.264.772.296 1.167.031.375.031.83.031 1.357v1.676c0 .528 0 .982-.03 1.357-.033.395-.104.789-.297 1.167a3 3 0 0 1-1.311 1.311c-.378.193-.772.264-1.167.296-.375.031-.83.031-1.357.031h-1.676c-.528 0-.982 0-1.357-.03-.395-.033-.789-.104-1.167-.297a3 3 0 0 1-1.311-1.311c-.193-.378-.264-.772-.296-1.167C8 14.32 8 13.865 8 13.338v-1.676c0-.528 0-.982.03-1.357.033-.395.104-.789.297-1.167a3 3 0 0 1 1.311-1.311c.378-.193.772-.264 1.167-.296.375-.031.83-.031 1.357-.031m-1.193 2.024c-.272.022-.373.06-.422.085a1 1 0 0 0-.437.437c-.025.05-.063.15-.085.422C10 10.75 10 11.123 10 11.7v1.6c0 .577 0 .949.024 1.232.022.272.06.373.085.422a1 1 0 0 0 .437.437c.05.025.15.063.422.085.283.023.655.024 1.232.024h1.6c.576 0 .949 0 1.232-.024.272-.022.373-.06.422-.085a1 1 0 0 0 .437-.437c.025-.05.063-.15.085-.422C16 14.25 16 13.877 16 13.3v-1.6c0-.577 0-.949-.024-1.232-.022-.272-.06-.373-.085-.422a1 1 0 0 0-.437-.437c-.05-.025-.15-.063-.422-.085C14.75 9.5 14.377 9.5 13.8 9.5h-1.6c-.577 0-.949 0-1.232.024" clip-rule="evenodd"/></svg>
